src/categories-icons-sprite/categories/svg-cat-cars-accessories.svg

<svg width="33" height="33" viewBox="0 0 33 33" fill="none" xmlns="http://www.w3.org/2000/svg">
<path class="p-7C8388" d="M19.4004 22.3757L18.4336 31.002H14.5664L13.5996 22.3757L16.5 21.334L19.4004 22.3757Z" fill="#A1D1FD"/>
<path class="p-7C8388" d="M1.99805 15.7845V18.4336L10.6992 19.4004L12.6328 15.5332L10.6992 11.6113C8.93752 12.2827 11.2868 11.2307 1.99805 15.7845Z" fill="#A1D1FD"/>
<path class="p-575F64" d="M22.3008 11.5981L20.3672 15.4992L22.3008 19.4004L31.002 18.4336V15.7846C23.7353 12.2719 24.3576 12.375 22.3008 11.5981Z" fill="#58ADE5"/>
<path class="p-575F64" d="M16.5 21.334L19.4004 21.4838L18.4336 31.002H16.5V21.334Z" fill="#58ADE5"/>
<path class="p-575F64" d="M16.5 0C7.43145 0 0 7.43145 0 16.5C0 25.5686 7.43145 33 16.5 33C25.5686 33 33 25.5686 33 16.5C33 7.43145 25.5686 0 16.5 0ZM16.5 29.0684C9.57767 29.0684 3.93164 23.4223 3.93164 16.5C3.93164 9.57767 9.57767 3.93164 16.5 3.93164C23.4223 3.93164 29.0684 9.57767 29.0684 16.5C29.0684 23.4223 23.4223 29.0684 16.5 29.0684Z" fill="#65B3E7"/>
<path class="p-32393F" d="M33 16.5C33 25.5686 25.5686 33 16.5 33V29.0684C23.4223 29.0684 29.0684 23.4223 29.0684 16.5C29.0684 9.57767 23.4223 3.93164 16.5 3.93164V0C25.5686 0 33 7.43145 33 16.5Z" fill="#4D98CB"/>
<path class="p-575F64" d="M22.3008 11.5887V19.4004L19.4004 22.3757H13.5996L10.6992 19.4004V11.6079C12.5747 10.8925 14.5277 10.5444 16.5 10.5444C18.4723 10.5444 20.4445 10.8925 22.3008 11.5887Z" fill="#65B3E7"/>
<path class="p-32393F" d="M22.3008 11.5887V19.4004L19.4004 22.3757H16.5V10.5444C18.4723 10.5444 20.4445 10.8925 22.3008 11.5887Z" fill="#4D98CB"/>
<path class="p-FFDA2D" d="M16.5 12.7078C14.8951 12.7078 13.5996 14.0032 13.5996 15.6082C13.5996 17.2131 14.8951 18.5085 16.5 18.5085C18.1049 18.5085 19.4004 17.2131 19.4004 15.6082C19.4004 14.0032 18.1049 12.7078 16.5 12.7078Z" fill="#B9DFFC"/>
<path class="p-FDBF00" d="M16.5 18.5085V12.7078C18.1049 12.7078 19.4004 14.0032 19.4004 15.6082C19.4004 17.2131 18.1049 18.5085 16.5 18.5085Z" fill="#A1D1FD"/>
</svg>

<svg width="33" height="33" fill="none" xmlns="http://www.w3.org/2000/svg"><path class="p-7C8388" d="M19.4 22.376l-.966 8.626h-3.868l-.966-8.626 2.9-1.042 2.9 1.042zM1.998 15.784v2.65l8.701.966 1.934-3.867-1.934-3.922c-1.761.672.588-.38-8.7 4.173z" fill="#A1D1FD"/><path class="p-575F64" d="M22.3 11.598L20.368 15.5l1.934 3.901 8.701-.966v-2.65c-7.267-3.512-6.644-3.409-8.701-4.186zM16.5 21.334l2.9.15-.966 9.518H16.5v-9.668z" fill="#58ADE5"/><path class="p-575F64" d="M16.5 0C7.431 0 0 7.431 0 16.5 0 25.569 7.431 33 16.5 33 25.569 33 33 25.569 33 16.5 33 7.431 25.569 0 16.5 0zm0 29.068c-6.922 0-12.568-5.646-12.568-12.568S9.578 3.932 16.5 3.932 29.068 9.578 29.068 16.5 23.422 29.068 16.5 29.068z" fill="#65B3E7"/><path class="p-32393F" d="M33 16.5C33 25.569 25.569 33 16.5 33v-3.932c6.922 0 12.568-5.646 12.568-12.568S23.422 3.932 16.5 3.932V0C25.569 0 33 7.431 33 16.5z" fill="#4D98CB"/><path class="p-575F64" d="M22.3 11.589V19.4l-2.9 2.976h-5.8L10.7 19.4v-7.792a16.212 16.212 0 015.8-1.064c1.972 0 3.945.348 5.8 1.045z" fill="#65B3E7"/><path class="p-32393F" d="M22.3 11.589V19.4l-2.9 2.976h-2.9V10.544c1.972 0 3.945.348 5.8 1.045z" fill="#4D98CB"/><path class="p-FFDA2D" d="M16.5 12.708a2.896 2.896 0 00-2.9 2.9c0 1.605 1.295 2.9 2.9 2.9s2.9-1.295 2.9-2.9-1.295-2.9-2.9-2.9z" fill="#B9DFFC"/><path class="p-FDBF00" d="M16.5 18.509v-5.801c1.605 0 2.9 1.295 2.9 2.9s-1.295 2.9-2.9 2.9z" fill="#A1D1FD"/></svg>
